storage/app/icons/phosphoricons/fill/trash-fill.svg

<svg xmlns="http://www.w3.org/2000/svg" fill="currentColor" viewBox="0 0 256 256"><path d="M216 48h-40v-8a24 24 0 0 0-24-24h-48a24 24 0 0 0-24 24v8H40a8 8 0 0 0 0 16h8v144a16 16 0 0 0 16 16h128a16 16 0 0 0 16-16V64h8a8 8 0 0 0 0-16M112 168a8 8 0 0 1-16 0v-64a8 8 0 0 1 16 0Zm48 0a8 8 0 0 1-16 0v-64a8 8 0 0 1 16 0Zm0-120H96v-8a8 8 0 0 1 8-8h48a8 8 0 0 1 8 8Z"/></svg>

<svg xmlns="http://www.w3.org/2000/svg" viewBox="0 0 256 256" fill="currentColor"><path d="M216,48H176V40a24,24,0,0,0-24-24H104A24,24,0,0,0,80,40v8H40a8,8,0,0,0,0,16h8V208a16,16,0,0,0,16,16H192a16,16,0,0,0,16-16V64h8a8,8,0,0,0,0-16ZM112,168a8,8,0,0,1-16,0V104a8,8,0,0,1,16,0Zm48,0a8,8,0,0,1-16,0V104a8,8,0,0,1,16,0Zm0-120H96V40a8,8,0,0,1,8-8h48a8,8,0,0,1,8,8Z"/></svg>
